X:1
T:The Little Lord Jesus
T:The Little Lord Jesus
T:Florence W. Williams
T:Lavinia Eliza Brauff, 1901
T:Public Domain Courtesy of the Cyber Hymnal™
C:Florence W. Williams
Z:Public Domain
Z:Courtesy of the Cyber Hymnal™
%%score 1 2
L:1/8
Q:1/4=90
M:6/8
K:Bb
V:1 treble 
V:2 bass 
V:1
 [DF] | [DF][DG][DA] [DB][DA][DB] | [^CG]3 [DF] z [DF] | [DF][DG][DA] [DB][DA][DB] | [EG]4 z [EG] | %5
w: 1.~A|ba- by once slept in a|man- ger, A|mo- ther sat close by His|side; This|
w: 2.~Wise|men sought this lit- tle Lord|Je- sus Who|lived on the earth long a-|go; They|
w: 3.~Now|if we will seek this Lord|Je- sus, He’ll|fill all our hearts with His|love; And|
 [EF][EF][EG] [EA][EB][Ec] | [Fd]3 [DB] z [DA] | [=EG][EG][EA] [EB][EA][EB] | [Ec]3- [Ec]2 z || %9
w: babe was the lit- tle Lord|Je- sus Who|for our sins suf- fered and|died. *|
w: came with their beau- ti- ful|trea- sures To|Beth- le- hem’s plain through the|snow. *|
w: gent- ly His Spir- it will|guide us To|beau- ti- ful man- sions ab-|ove. *|
"^Refrain" [Fd]3 [Ge]3 | [Fd]3 [Ec]3 | [D=B]2 [Ec] [Fd]2 [Ec] | [DB]3 [DF]2 z | [EG]3 [GB]3 | %14
w: |||||
w: Je- sus,|Je- sus,|Born this bless- èd|morn- ing;|Hail Him!|
w: |||||
 [Fd]3 [DB]3 | [Gd]2 [Gc] [FB]2 [EA] | [DB]3- [DB]2 |] %17
w: |||
w: Hail Him!|On this Christ- mas|day. *|
w: |||
V:2
 [B,,F,] | [B,,F,][B,,F,][B,,F,] [B,,F,][B,,F,][B,,F,] | [B,,=E,]3 [B,,F,] z [B,,B,] | %3
 [B,,B,][B,,B,][B,,B,] [B,,B,][B,,B,][B,,B,] | [E,B,]4 z [E,B,] | %5
 [F,A,][F,A,][F,A,] [F,C][F,B,][F,A,] | [B,,B,]3 [B,,F,] z [B,,F,] | %7
 [C,B,][C,B,][C,A,] [C,G,][C,G,][C,G,] | [F,A,]3- [F,A,]2 z || [B,,B,]3 [B,,B,]3 | %10
 [F,A,]3 [F,A,]3 | [F,^G,]2 [F,A,] [F,A,]2 [F,A,] | [B,,B,]3 [B,,B,]2 z | [E,B,]3 [E,B,]3 | %14
 [B,,B,]3 [B,,B,]3 | [E,B,]2 [E,E] [F,D]2 [F,C] | [B,,B,]3- [B,,B,]2 |] %17

